X: 11
T:Captain Campbell
M:4/4
L:1/8
Q:90
S:Hunter
R:Strathspey
D:The Driven Bow (Track 7)
K:A Minor
"Am"E<AA>B c>A"Em"B>G|"G"D<GG>A B>d c/2B/2A/2G/2|"Am"E<AA>B c>Bc<e|"G/Em
"dB "Am"A2-A:||!
"Am"A<aa>g e>dc<e|"G"d>eg>e d/2c/2B/2A/2 "Em"Gg e>dc<e|"G/Em
"dB "Am"A2-A B|!
"Am"A<aa>g e>dc<e|"G"d>eg>e d/2c/2B/2A/2 "Em"GA"G"ddc<
e|"G"dB "Am"A2-A||
% <A name="D1X012">
